X: 4
T: The Weavers
%R: reel
B: "Twenty Four Country Dances for the Year 1781", Thomas Skillern, ed. p.2 #2
F: http://www.vwml.org/browse/browse-collections-dance-tune-books/browse-skillerns1781#
Z: 2014 John Chambers <jc:trillian.mit.edu>
M: C
L: 1/16
K: F
|:\
FGAB cAdB cAf2 f2ed | cAFA cAFA G2C2 C2DE |
FGAB cAdB cAf2 f2ed | gecG Acfa gefd c4 :|
|:\
GECE GECE GdcB A2GF | cAFA cAFA c_edc d2cB |
bagf fedc | BAGF FEDC | b3g aefB A2G2 F4 :|
%%begintext align
%%   Hey on the contrary sides .| then on
%% your own :| lead down one Cu. up again
%% Cast off :|. Hands four at bottom
%% Right and Left at top :|:
%%endtext

%%sep 1 1 500
%%sep 1 1 500
